X: 11
T: The Wind That Shakes The Barley
R: reel
M: 4/4
L: 1/8
K: Dmaj
d B || A2FA ADFD | BEGE B2dB | A2FA A2de | fded BAdB |A2FA ADF/E/D | BEGE BEdB | A2FA A2de | fded BAde ||f2ed g2eg | fedf e2de | fdfd a3b | afed BAde |f2ed g2eg | fedf edBA | defg a2ab | afed BAdB ||


Tune 116	Setting 22309

